X: 100
T: Arap Sazsemâîsi
C: Mısırlı Udî İbrahim Efendi
O: Turkey
F: http://compmusic.upf.edu/node/140
N: beyati--sazsemaisi--aksaksemai--arap--misirli_udi_ibrahim_efendi
N: makam= beyati
N: form= sazsemaisi
N: usul= aksaksemai = 10/8
M: 10/8
L: 1/16
K: C _2/4B   
Q: 1/4=144
%%MIDI tuningsystem comma53
g4 e2fe d2ed cBc4ef  | g4 e2fe d2ed cBc4Bc  | 
w:  1. HANE  |   | 
d4 e2cd (3cBAB2 c2d4ef  | aggf feed dccB BAA4fe  | 
w:   |   | 
d4 edc4dc dcdc BdcB  | A3c BAB3d(3cBA Bcd4ef  | 
w:   |   | 
aggf feed dccB BAA4fe  | d4 edc4d2 c2B2 d2cB  | 
w:   |   | 
A3c BAG3d(3cBA Bcd4ef  | aggf feed dccB BAA4ef  | 
w:   |   | 
g4 e2fe d2ed cBc4ef  | g4 e2fe d2ed cBc4Bc  | 
w:  1. HANE  |   | 
d4 e2cd (3cBAB2 c2d4ef  | aggf feed dccB BAA4fe  | 
w:   |   | 
d4 edc4dc dcdc BdcB  | A3c BAB3d(3cBA Bcd4ef  | 
w:   |   | 
aggf feed dccB BAA4fe  | d4 edc4d2 c2B2 d2cB  | 
w:   |   | 
A3c BAG3d(3cBA Bcd4ef  | aggf feed dccB BAA4ef  | 
w:   |   | 
g4 ^3/4f2ga gfg2 a2ba gfe2  | ^3/4f4 e2fg fef2 g2ag fed2  | 
w:  2. HANE  |   | 
g4 ^3/4f2ga gfg2 a2ba gfe2  | ^3/4f4 e2fg fef2 g2ag fed2  | 
w:   |   | 
d4 d2cd (3cBAB2 c2d4ef  | aggf feed dccB BAA4fe  | 
w:   |  TESLİM  | 
d4 edc4dc dcdc BdcB  | A3c BAG3d(3cBA Bcd4ef  | 
w:   |   | 
aggf feed dccB BAA4fe  | d4 edc4dc dcdc BdcB  | 
w:   |   | 
A3c BAG3d(3cBA Bcd4ef  | aggf feed dccB BAA6  | 
w:   |   | 
d4 ^c2de dcd2 e2fe dc_B2  | ^c4 _B2cd cBc2 d2fe dcBA  | 
w:  3. HANE  |   | 
d4 ^c2de dcd2 e2fe dc_B2  | cd^c2 _B2cd cBc2 d2fe dcBA  | 
w:   |   | 
d4 d2cd (3cBAB2 c2d4ef  | aggf feed dccB BAA4fe  | 
w:   |  TESLİM  | 
d4 edc4dc dcdc BdcB  | A3c BAG3d(3cBA Bcd4ef  | 
w:   |   | 
aggf feed dccB BAA4fe  | d4 edc4dc dcdc BdcB  | 
w:   |   | 
A3c BAG3d(3cBA Bcd4ef  | aggf feed dccB BAA6  | 
w:   |   | 
c4 c2c3_dcB ABcd cdcB  | B4 B2B3Ac2 BAA6  | 
w:  4. HANE  |   | 
c4 c2c3_dcB ABcd cdcB  | B4 B2B3Ac2 BAA4A2  | 
w:   |   | 
d4 d2cd (3cBAB2 c2d4ef  | aggf feed dccB BAA4fe  | 
w:   |  TESLİM  | 
d4 edc4dc dcdc BdcB  | A3c BAG3d(3cBA Bcd4ef  | 
w:   |   | 
aggf feed dccB BAA4fe  | d4 edc4dc dcdc BdcB  | 
w:   |   | 
A3c BAG3d(3cBA Bcd4ef  | aggf feed dccB BAA6  | 
w:   |   | 
|


